X: 1
P: Cutting Ferns
C: similar to song "Tha mi sgith"
C: Skye Colln. and Jerry Holland, arr. T. Traub 2-27-2004
M: C
L: 1/8
K: A
|: B|"Am"A<A a2 "C"g<e g2|"G"e>dB>A "Em"G>A B<G|"Am"A<A a2 "C"g<e g2|"Em"e>dB>e "Am"A2 A :|
|: g|"C"e>dB>A "G"G>A B<G|"Am"e>dB>A "Em"B2 B<g|"C"e>dB>A "G"G>AB>e|"Em"dB "Am"A2 A :|
